lib/svgs/collection.svg

<?xml version="1.0" encoding="UTF-8" standalone="no"?>
<svg width="20px" height="20px" viewBox="0 0 20 20" version="1.1" xmlns="http://www.w3.org/2000/svg" xmlns:xlink="http://www.w3.org/1999/xlink">
    <defs></defs>
    <g id="Icons" stroke="none" stroke-width="1" fill="none" fill-rule="evenodd">
        <g id="Web" transform="translate(-241.000000, -262.000000)" fill="#000000">
            <g id="app/collection" transform="translate(241.000000, 262.000000)">
                <path d="M3.6,18.2 L12.464,18.2 C12.7953708,18.2 13.064,17.9313708 13.064,17.6 L13.064,6.691 C13.064,6.35962915 12.7953708,6.091 12.464,6.091 L3.6,6.091 C3.26862915,6.091 3,6.35962915 3,6.691 L3,17.6 C3,17.9313708 3.26862915,18.2 3.6,18.2 L3.6,18.2 M4.227478,7.3175049 L11.8639999,7.29100002 L11.8639999,17 L4.227478,17 L4.227478,7.3175049 M13.9095003,5.24540005 L13.9095,15.5544 C13.9095,15.8857708 14.1781292,16.1544 14.5095,16.1544 C14.8408708,16.1544 15.1095,15.8857708 15.1095,15.5544 L15.1095,4.6454 C15.1095,4.31402915 14.8408708,4.0454 14.5095,4.0454 L5.6455,4.0454 C5.31412915,4.0454 5.0455,4.31402915 5.0455,4.6454 C5.0455,4.97677085 5.31412915,5.2454 5.6455,5.2454 L13.9095003,5.24540005 M15.9549003,3.20000005 L15.9549,13.509 C15.9549,13.8403708 16.2235292,14.109 16.5549,14.109 C16.8862708,14.109 17.1549,13.8403708 17.1549,13.509 L17.1549,2.6 C17.1549,2.26862915 16.8862708,2 16.5549,2 L7.6909,2 C7.35952915,2 7.0909,2.26862915 7.0909,2.6 C7.0909,2.93137085 7.35952915,3.2 7.6909,3.2 L15.9549003,3.20000005" id="Shape"></path>
            </g>
        </g>
    </g>
</svg>

<svg xmlns="http://www.w3.org/2000/svg" viewBox="0 0 20 20">
    <path fill="#000" fill-rule="evenodd" d="M3.6 18.2h8.864a.6.6 0 0 0 .6-.6V6.691a.6.6 0 0 0-.6-.6H3.6a.6.6 0 0 0-.6.6V17.6a.6.6 0 0 0 .6.6m.627-10.882l7.637-.027V17H4.227V7.318m9.683-2.073v10.31a.6.6 0 0 0 1.2 0V4.644a.6.6 0 0 0-.6-.6H5.645a.6.6 0 1 0 0 1.2h8.264M15.955 3.2v10.309a.6.6 0 0 0 1.2 0V2.6a.6.6 0 0 0-.6-.6H7.69a.6.6 0 1 0 0 1.2h8.264"/>
</svg>
